!!!COM:	Josquin des Pres
**kern	**kern
*part2	*part1
*staff2	*staff1
*clefGv2	*clefG2
*k[]	*k[]
*M2/1	*M2/1
=1-	=1-
0r	1.e
.	4f
.	4g
=2	=2
0r	2a
.	1g
.	4f
.	4g
=3	=3
1.A	0a
4B	.
4c	.
=4	=4
2d	1r
1c	.
.	[1a
4B	.
4c	.
=5	=5
1d	2a]
.	4b
.	4cc
1f	2dd
.	[2cc
=6	=6
1e	2cc]
.	4b
.	4cc
[1d	2dd
.	[2ff
=7	=7
2d]	2ff]
4c	4ee
4B	4dd
2c	2ee
2d	[2dd
=8	=8
1e	2dd]
.	1cc
1A	.
.	4b
.	4a
=9	=9
1r	2b
.	1a
1e	.
.	2g
=10	=10
2f	2a
1e	1g
4d	4f
4c	4e
=11	=11
2d	2f
2e	1e
1f	.
.	2d
=12	=12
2.e	2e
.	1g
4d	.
4c	.
4B	.
[2A	4f
.	4e
=13	=13
2A]	2f
2G	1e
1F	.
.	2d
=14	=14
0E	0e
==	==
*-	*-
